Newaita-dark/apps/48/QMPlay2.svg

<svg height="48pt" viewBox="0 0 48 48" width="48pt" xmlns="http://www.w3.org/2000/svg" xmlns:xlink="http://www.w3.org/1999/xlink"><linearGradient id="a"><stop offset="0" stop-opacity=".313725"/><stop offset=".222222" stop-opacity=".27451"/><stop offset="1" stop-opacity="0"/></linearGradient><radialGradient id="b" cx="450.908936" cy="189.579361" gradientTransform="matrix(.00000026 -.117199 -.210958 -.00000015 49.915932 95.392999)" gradientUnits="userSpaceOnUse" r="21.166656" xlink:href="#a"/><radialGradient id="c" cx="450.908936" cy="189.579361" gradientTransform="matrix(-.00000026 .117199 .210958 .00000015 -29.077997 -11.291218)" gradientUnits="userSpaceOnUse" r="21.166656" xlink:href="#a"/><radialGradient id="d" cx="450.908936" cy="189.579361" gradientTransform="matrix(-.00000026 -.117199 .210958 -.00000015 -29.077997 95.392999)" gradientUnits="userSpaceOnUse" r="21.166656" xlink:href="#a"/><radialGradient id="e" cx="450.908936" cy="189.579361" gradientTransform="matrix(.00000026 .117199 -.210958 .00000015 49.91593 -11.291219)" gradientUnits="userSpaceOnUse" r="21.166656" xlink:href="#a"/><linearGradient id="f" gradientUnits="userSpaceOnUse" x1="17.8610895" x2="17.8610895" y1="12.282419" y2="34.11263899995"><stop offset="0" stop-color="#66bb6a"/><stop offset="1" stop-color="#81c784"/></linearGradient><linearGradient id="g" gradientUnits="userSpaceOnUse" x1="23.814786" x2="23.814786" y1="42.0509015" y2="4.34415649995"><stop offset="0" stop-color="#424242"/><stop offset="1" stop-color="#616161"/></linearGradient><path d="m10.417969 42.050781h3.96875v-1.984375h-3.96875zm0 0" fill="url(#b)"/><path d="m10.417969 42.050781h-3.96875v1.984375h3.96875zm0 0" fill="url(#c)"/><path d="m10.417969 42.050781h-3.96875v-1.984375h3.96875zm0 0" fill="url(#d)"/><path d="m10.417969 42.050781h3.96875v1.984375h-3.96875zm0 0" fill="url(#e)"/><path d="m10.921875 4.34375c-.128906 0-.257813.007812-.386719.023438-.023437.003906-.042968.007812-.0625.007812-.011718.003906-.019531.003906-.027344.007812-.011718 0-.023437 0-.035156.003907-1.289062.21875-2.292968 1.257812-2.449218 2.570312-.003907.019531-.003907.039063-.007813.0625-.011719.125-.019531.25-.015625.375v31.679688.019531c-.011719.53125.117188 1.070312.402344 1.566406.824218 1.429688 2.636718 1.914063 4.066406 1.089844l27.496094-15.878906c.972656-.558594 1.507812-1.578125 1.492187-2.625.015625-1.042969-.519531-2.0625-1.492187-2.625l-27.378906-15.808594c-.328126-.210938-.699219-.355469-1.097657-.425781-.019531-.003907-.042969-.007813-.0625-.007813-.148437-.023437-.292969-.035156-.441406-.035156zm0 0" fill="url(#f)"/><path d="m10.921875 4.34375c-.128906 0-.257813.007812-.386719.023438-.023437.003906-.042968.007812-.0625.007812-.011718.003906-.019531.003906-.027344.007812-.011718 0-.023437 0-.035156.003907-1.289062.21875-2.292968 1.257812-2.449218 2.570312-.003907.019531-.003907.039063-.007813.0625-.011719.125-.019531.25-.015625.375v31.679688.019531c-.011719.53125.117188 1.070312.402344 1.566406.824218 1.429688 2.636718 1.914063 4.066406 1.089844l27.496094-15.878906c.972656-.558594 1.507812-1.578125 1.492187-2.625.015625-1.042969-.519531-2.0625-1.492187-2.625l-27.378906-15.808594c-.328126-.210938-.699219-.355469-1.097657-.425781-.019531-.003907-.042969-.007813-.0625-.007813-.148437-.023437-.292969-.035156-.441406-.035156zm2.96875 8.132812 18.652344 10.769532-18.652344 10.769531zm0 0" fill="url(#g)"/><path d="m10.921875 4.34375c-.128906 0-.257813.007812-.386719.023438-.023437.003906-.042968.007812-.0625.007812-.011718.003906-.019531.003906-.027344.007812-.011718 0-.023437 0-.035156.003907-1.289062.21875-2.292968 1.257812-2.449218 2.570312-.003907.019531-.003907.039063-.007813.0625-.011719.125-.019531.25-.015625.375v.371094c.003906-.082031.007812-.167969.015625-.25.003906-.019531.003906-.042969.007813-.0625.15625-1.308594 1.160156-2.351563 2.449218-2.570313.011719 0 .023438-.003906.035156-.003906.007813-.003906.015626-.003906.027344-.003906.019532-.003906.039063-.007812.0625-.011719.128906-.015625.257813-.023437.386719-.023437.148437 0 .292969.011718.441406.035156.019531.003906.042969.007812.0625.011719.398438.066406.769531.214843 1.097657.421875l27.378906 15.808594c.898437.519531 1.421875 1.421874 1.484375 2.378906.007812-.082032.007812-.164063.007812-.25.015625-1.042969-.519531-2.0625-1.492187-2.625l-27.378906-15.808594c-.328126-.210938-.699219-.355469-1.097657-.425781-.019531-.003907-.042969-.007813-.0625-.007813-.148437-.023437-.292969-.035156-.441406-.035156zm21.191406 19.152344-18.222656 10.519531v.496094l18.652344-10.769531zm-24.175781 15.625v.097656zm0 0" fill="#fff" fill-opacity=".392157"/><path d="m7.9375 7.269531v.125zm5.953125 4.3125v.894531l17.878906 10.324219.773438-.449219zm27.476563 11.21875c-.117188.878907-.628907 1.695313-1.464844 2.175781l-27.496094 15.875c-1.429688.828126-3.242188.339844-4.066406-1.085937-.265625-.457031-.394532-.953125-.402344-1.441406v.75.019531c-.011719.53125.117188 1.070312.402344 1.566406.824218 1.429688 2.636718 1.914063 4.066406 1.089844l27.496094-15.878906c.972656-.558594 1.507812-1.578125 1.492187-2.625.003907-.148438-.007812-.300782-.027343-.445313zm-33.429688 15.378907v.042968c0-.007812 0-.015625 0-.023437 0-.007813 0-.015625 0-.019531zm0 0" fill-opacity=".235294"/><path d="m10.925781 4.203125c-.136719 0-.273437.007813-.410156.023437-.019531.003907-.042969.007813-.066406.011719-.007813 0-.019531.003907-.027344.003907-.011719 0-.023437.003906-.03125.003906-1.351563.230468-2.402344 1.320312-2.570313 2.691406-.003906.023438-.003906.042969-.007812.066406-.011719.132813-.019531.261719-.015625.394532v-.003907 31.679688.015625c-.011719.554687.121094 1.121094.421875 1.640625.859375 1.492187 2.761719 2.003906 4.257812 1.140625l27.496094-15.875c1.019532-.589844 1.578125-1.65625 1.5625-2.75.015625-1.09375-.542968-2.160156-1.5625-2.746094l-27.375-15.804688c-.339844-.21875-.730468-.375-1.148437-.445312-.019531-.003906-.042969-.007812-.066407-.011719-.152343-.023437-.304687-.035156-.457031-.035156zm-.003906.28125c.140625 0 .28125.011719.417969.03125.023437.003906.042968.007813.0625.011719.378906.0625.734375.203125 1.046875.402344v.003906l27.382812 15.808594c.929688.535156 1.4375 1.507812 1.421875 2.503906v.003906c.015625.996094-.492187 1.964844-1.421875 2.5l-27.496093 15.878906c-1.363282.785156-3.089844.324219-3.875-1.039062-.273438-.472656-.394532-.988282-.382813-1.492188v-.003906c0-.011719 0-.015625 0-.019531v-31.683594c-.003906-.121094.003906-.238281.015625-.359375 0-.019531.003906-.039062.007812-.058594.148438-1.246094 1.105469-2.238281 2.332032-2.449218h.003906c.007812 0 .019531 0 .027344-.003907.011718 0 .019531-.003906.027344-.003906.019531-.003906.039062-.003906.0625-.007813.121093-.015624.246093-.023437.367187-.023437zm2.828125 7.75v22.027344l19.074219-11.015625zm.28125.488281 18.230469 10.523438-18.230469 10.527344zm0 0" fill="#212121"/></svg>

<?xml version="1.0" encoding="UTF-8"?>
<svg xmlns="http://www.w3.org/2000/svg" xmlns:xlink="http://www.w3.org/1999/xlink" width="48pt" height="48pt" viewBox="0 0 48 48" version="1.1">
<defs>
<radialGradient id="radial0" gradientUnits="userSpaceOnUse" cx="450.908936" cy="189.579361" fx="450.908936" fy="189.579361" r="21.166656" gradientTransform="matrix(0.000000261256,-0.117199,-0.210958,-0.000000152308,49.915932,95.392999)">
<stop offset="0" style="stop-color:rgb(0%,0%,0%);stop-opacity:0.313725;"/>
<stop offset="0.222222" style="stop-color:rgb(0%,0%,0%);stop-opacity:0.27451;"/>
<stop offset="1" style="stop-color:rgb(0%,0%,0%);stop-opacity:0;"/>
</radialGradient>
<radialGradient id="radial1" gradientUnits="userSpaceOnUse" cx="450.908936" cy="189.579361" fx="450.908936" fy="189.579361" r="21.166656" gradientTransform="matrix(-0.000000261256,0.117199,0.210958,0.000000152308,-29.077997,-11.291218)">
<stop offset="0" style="stop-color:rgb(0%,0%,0%);stop-opacity:0.313725;"/>
<stop offset="0.222222" style="stop-color:rgb(0%,0%,0%);stop-opacity:0.27451;"/>
<stop offset="1" style="stop-color:rgb(0%,0%,0%);stop-opacity:0;"/>
</radialGradient>
<radialGradient id="radial2" gradientUnits="userSpaceOnUse" cx="450.908936" cy="189.579361" fx="450.908936" fy="189.579361" r="21.166656" gradientTransform="matrix(-0.000000261256,-0.117199,0.210958,-0.000000152308,-29.077997,95.392999)">
<stop offset="0" style="stop-color:rgb(0%,0%,0%);stop-opacity:0.313725;"/>
<stop offset="0.222222" style="stop-color:rgb(0%,0%,0%);stop-opacity:0.27451;"/>
<stop offset="1" style="stop-color:rgb(0%,0%,0%);stop-opacity:0;"/>
</radialGradient>
<radialGradient id="radial3" gradientUnits="userSpaceOnUse" cx="450.908936" cy="189.579361" fx="450.908936" fy="189.579361" r="21.166656" gradientTransform="matrix(0.000000261256,0.117199,-0.210958,0.000000152308,49.91593,-11.291219)">
<stop offset="0" style="stop-color:rgb(0%,0%,0%);stop-opacity:0.313725;"/>
<stop offset="0.222222" style="stop-color:rgb(0%,0%,0%);stop-opacity:0.27451;"/>
<stop offset="1" style="stop-color:rgb(0%,0%,0%);stop-opacity:0;"/>
</radialGradient>
<linearGradient id="linear0" gradientUnits="userSpaceOnUse" x1="190.5" y1="-84" x2="190.5" y2="148.833328" gradientTransform="matrix(0.093759,0,0,0.093759,0,20.158175)">
<stop offset="0" style="stop-color:rgb(40%,73.333333%,41.568627%);stop-opacity:1;"/>
<stop offset="1" style="stop-color:rgb(50.588235%,78.039216%,51.764706%);stop-opacity:1;"/>
</linearGradient>
<linearGradient id="linear1" gradientUnits="userSpaceOnUse" x1="254" y1="233.5" x2="254" y2="-168.666672" gradientTransform="matrix(0.093759,0,0,0.093759,0,20.158175)">
<stop offset="0" style="stop-color:rgb(25.882353%,25.882353%,25.882353%);stop-opacity:1;"/>
<stop offset="1" style="stop-color:rgb(38.039216%,38.039216%,38.039216%);stop-opacity:1;"/>
</linearGradient>
</defs>
<g id="surface1">
<path style=" stroke:none;fill-rule:nonzero;fill:url(#radial0);" d="M 10.417969 42.050781 L 14.386719 42.050781 L 14.386719 40.066406 L 10.417969 40.066406 Z M 10.417969 42.050781 "/>
<path style=" stroke:none;fill-rule:nonzero;fill:url(#radial1);" d="M 10.417969 42.050781 L 6.449219 42.050781 L 6.449219 44.035156 L 10.417969 44.035156 Z M 10.417969 42.050781 "/>
<path style=" stroke:none;fill-rule:nonzero;fill:url(#radial2);" d="M 10.417969 42.050781 L 6.449219 42.050781 L 6.449219 40.066406 L 10.417969 40.066406 Z M 10.417969 42.050781 "/>
<path style=" stroke:none;fill-rule:nonzero;fill:url(#radial3);" d="M 10.417969 42.050781 L 14.386719 42.050781 L 14.386719 44.035156 L 10.417969 44.035156 Z M 10.417969 42.050781 "/>
<path style=" stroke:none;fill-rule:nonzero;fill:url(#linear0);" d="M 10.921875 4.34375 C 10.792969 4.34375 10.664062 4.351562 10.535156 4.367188 C 10.511719 4.371094 10.492188 4.375 10.472656 4.375 C 10.460938 4.378906 10.453125 4.378906 10.445312 4.382812 C 10.433594 4.382812 10.421875 4.382812 10.410156 4.386719 C 9.121094 4.605469 8.117188 5.644531 7.960938 6.957031 C 7.957031 6.976562 7.957031 6.996094 7.953125 7.019531 C 7.941406 7.144531 7.933594 7.269531 7.9375 7.394531 L 7.9375 39.074219 C 7.9375 39.082031 7.9375 39.085938 7.9375 39.09375 C 7.925781 39.625 8.054688 40.164062 8.339844 40.660156 C 9.164062 42.089844 10.976562 42.574219 12.40625 41.75 L 39.902344 25.871094 C 40.875 25.3125 41.410156 24.292969 41.394531 23.246094 C 41.410156 22.203125 40.875 21.183594 39.902344 20.621094 L 12.523438 4.8125 C 12.195312 4.601562 11.824219 4.457031 11.425781 4.386719 C 11.40625 4.382812 11.382812 4.378906 11.363281 4.378906 C 11.214844 4.355469 11.070312 4.34375 10.921875 4.34375 Z M 10.921875 4.34375 "/>
<path style=" stroke:none;fill-rule:nonzero;fill:url(#linear1);" d="M 10.921875 4.34375 C 10.792969 4.34375 10.664062 4.351562 10.535156 4.367188 C 10.511719 4.371094 10.492188 4.375 10.472656 4.375 C 10.460938 4.378906 10.453125 4.378906 10.445312 4.382812 C 10.433594 4.382812 10.421875 4.382812 10.410156 4.386719 C 9.121094 4.605469 8.117188 5.644531 7.960938 6.957031 C 7.957031 6.976562 7.957031 6.996094 7.953125 7.019531 C 7.941406 7.144531 7.933594 7.269531 7.9375 7.394531 L 7.9375 39.074219 C 7.9375 39.082031 7.9375 39.085938 7.9375 39.09375 C 7.925781 39.625 8.054688 40.164062 8.339844 40.660156 C 9.164062 42.089844 10.976562 42.574219 12.40625 41.75 L 39.902344 25.871094 C 40.875 25.3125 41.410156 24.292969 41.394531 23.246094 C 41.410156 22.203125 40.875 21.183594 39.902344 20.621094 L 12.523438 4.8125 C 12.195312 4.601562 11.824219 4.457031 11.425781 4.386719 C 11.40625 4.382812 11.382812 4.378906 11.363281 4.378906 C 11.214844 4.355469 11.070312 4.34375 10.921875 4.34375 Z M 13.890625 12.476562 L 32.542969 23.246094 L 13.890625 34.015625 Z M 13.890625 12.476562 "/>
<path style=" stroke:none;fill-rule:nonzero;fill:rgb(100%,100%,100%);fill-opacity:0.392157;" d="M 10.921875 4.34375 C 10.792969 4.34375 10.664062 4.351562 10.535156 4.367188 C 10.511719 4.371094 10.492188 4.375 10.472656 4.375 C 10.460938 4.378906 10.453125 4.378906 10.445312 4.382812 C 10.433594 4.382812 10.421875 4.382812 10.410156 4.386719 C 9.121094 4.605469 8.117188 5.644531 7.960938 6.957031 C 7.957031 6.976562 7.957031 6.996094 7.953125 7.019531 C 7.941406 7.144531 7.933594 7.269531 7.9375 7.394531 L 7.9375 7.765625 C 7.941406 7.683594 7.945312 7.597656 7.953125 7.515625 C 7.957031 7.496094 7.957031 7.472656 7.960938 7.453125 C 8.117188 6.144531 9.121094 5.101562 10.410156 4.882812 C 10.421875 4.882812 10.433594 4.878906 10.445312 4.878906 C 10.453125 4.875 10.460938 4.875 10.472656 4.875 C 10.492188 4.871094 10.511719 4.867188 10.535156 4.863281 C 10.664062 4.847656 10.792969 4.839844 10.921875 4.839844 C 11.070312 4.839844 11.214844 4.851562 11.363281 4.875 C 11.382812 4.878906 11.40625 4.882812 11.425781 4.886719 C 11.824219 4.953125 12.195312 5.101562 12.523438 5.308594 L 39.902344 21.117188 C 40.800781 21.636719 41.324219 22.539062 41.386719 23.496094 C 41.394531 23.414062 41.394531 23.332031 41.394531 23.246094 C 41.410156 22.203125 40.875 21.183594 39.902344 20.621094 L 12.523438 4.8125 C 12.195312 4.601562 11.824219 4.457031 11.425781 4.386719 C 11.40625 4.382812 11.382812 4.378906 11.363281 4.378906 C 11.214844 4.355469 11.070312 4.34375 10.921875 4.34375 Z M 32.113281 23.496094 L 13.890625 34.015625 L 13.890625 34.511719 L 32.542969 23.742188 Z M 7.9375 39.121094 C 7.9375 39.152344 7.9375 39.1875 7.9375 39.21875 Z M 7.9375 39.121094 "/>
<path style=" stroke:none;fill-rule:nonzero;fill:rgb(0%,0%,0%);fill-opacity:0.235294;" d="M 7.9375 7.269531 C 7.9375 7.3125 7.9375 7.351562 7.9375 7.394531 Z M 13.890625 11.582031 L 13.890625 12.476562 L 31.769531 22.800781 L 32.542969 22.351562 Z M 41.367188 22.800781 C 41.25 23.679688 40.738281 24.496094 39.902344 24.976562 L 12.40625 40.851562 C 10.976562 41.679688 9.164062 41.191406 8.339844 39.765625 C 8.074219 39.308594 7.945312 38.8125 7.9375 38.324219 L 7.9375 39.074219 C 7.9375 39.082031 7.9375 39.085938 7.9375 39.09375 C 7.925781 39.625 8.054688 40.164062 8.339844 40.660156 C 9.164062 42.089844 10.976562 42.574219 12.40625 41.75 L 39.902344 25.871094 C 40.875 25.3125 41.410156 24.292969 41.394531 23.246094 C 41.398438 23.097656 41.386719 22.945312 41.367188 22.800781 Z M 7.9375 38.179688 L 7.9375 38.222656 C 7.9375 38.214844 7.9375 38.207031 7.9375 38.199219 C 7.9375 38.191406 7.9375 38.183594 7.9375 38.179688 Z M 7.9375 38.179688 "/>
<path style=" stroke:none;fill-rule:nonzero;fill:rgb(12.941177%,12.941177%,12.941177%);fill-opacity:1;" d="M 10.925781 4.203125 C 10.789062 4.203125 10.652344 4.210938 10.515625 4.226562 C 10.496094 4.230469 10.472656 4.234375 10.449219 4.238281 C 10.441406 4.238281 10.429688 4.242188 10.421875 4.242188 C 10.410156 4.242188 10.398438 4.246094 10.390625 4.246094 C 9.039062 4.476562 7.988281 5.566406 7.820312 6.9375 C 7.816406 6.960938 7.816406 6.980469 7.8125 7.003906 C 7.800781 7.136719 7.792969 7.265625 7.796875 7.398438 L 7.796875 7.394531 L 7.796875 39.074219 C 7.796875 39.082031 7.796875 39.085938 7.796875 39.089844 C 7.785156 39.644531 7.917969 40.210938 8.21875 40.730469 C 9.078125 42.222656 10.980469 42.734375 12.476562 41.871094 L 39.972656 25.996094 C 40.992188 25.40625 41.550781 24.339844 41.535156 23.246094 C 41.550781 22.152344 40.992188 21.085938 39.972656 20.5 L 12.597656 4.695312 C 12.257812 4.476562 11.867188 4.320312 11.449219 4.25 C 11.429688 4.246094 11.40625 4.242188 11.382812 4.238281 C 11.230469 4.214844 11.078125 4.203125 10.925781 4.203125 Z M 10.921875 4.484375 C 11.0625 4.484375 11.203125 4.496094 11.339844 4.515625 C 11.363281 4.519531 11.382812 4.523438 11.402344 4.527344 C 11.78125 4.589844 12.136719 4.730469 12.449219 4.929688 L 12.449219 4.933594 L 39.832031 20.742188 C 40.761719 21.277344 41.269531 22.25 41.253906 23.246094 L 41.253906 23.25 C 41.269531 24.246094 40.761719 25.214844 39.832031 25.75 L 12.335938 41.628906 C 10.972656 42.414062 9.246094 41.953125 8.460938 40.589844 C 8.1875 40.117188 8.066406 39.601562 8.078125 39.097656 L 8.078125 39.09375 C 8.078125 39.082031 8.078125 39.078125 8.078125 39.074219 L 8.078125 7.390625 C 8.074219 7.269531 8.082031 7.152344 8.09375 7.03125 C 8.09375 7.011719 8.097656 6.992188 8.101562 6.972656 C 8.25 5.726562 9.207031 4.734375 10.433594 4.523438 L 10.4375 4.523438 C 10.445312 4.523438 10.457031 4.523438 10.464844 4.519531 C 10.476562 4.519531 10.484375 4.515625 10.492188 4.515625 C 10.511719 4.511719 10.53125 4.511719 10.554688 4.507812 C 10.675781 4.492188 10.800781 4.484375 10.921875 4.484375 Z M 13.75 12.234375 L 13.75 34.261719 L 32.824219 23.246094 Z M 14.03125 12.722656 L 32.261719 23.246094 L 14.03125 33.773438 Z M 14.03125 12.722656 "/>
</g>
</svg>
